!!!OTL: Der Ackermann (Bauer.)
!!!ARE: Europa, Mitteleuropa, Deutschland
!!!SCT: A0082A
!!!TXL: @@GMH
!!!YEM: Copyright 1995, estate of Helmut Schaffrath.
**kern	**text
*M3/2	*
*met(3)	*
*clefC3	*
*k[b-]	*
*G:doe	*
=1	=1
!LO:TX:a:t=dor. tr.	!
{2G	Die
2G	welt
2G	hat
=2	=2
1d	ei-
2e	-nen
=3	=3
2f	thummen
1e	.
=4	=4
1d	můt,
2r}	.
=5	=5
{2c	für-
2d	-war
2f	es
=6	=6
1d	thut
2d	die
=7	=7
2B-	leng
1c	kein
=8	=8
1B-	gůt,
2r}	.
=9	=9
!LO:TX:a:t=*	!
{2B-	es
2d	fůr
2f	ein
=10	=10
1e-	baur
2d	ins
=11	=11
2.c	hol-
8B-L	.
8AJ	.
2G	.
=12	=12
1F	-tʒe.
2r}	.
=13	=13
{2d	er
2d	bracht
2d	ſeim
=14	=14
1d	herrn
2c	ein
=15	=15
1B-	fů-
2A	-der
=16	=16
1B-	holtʒ,
2r}	.
=17	=17
{2B-	mit
2d	ſei-
2f	-nem
=18	=18
1e-	röß-
2c	-lein
=19	=19
2.d	ſtol-
8c/L	.
8B-/J	.
2A	.
=20	=20
1.G/ll}	-tʒe.
==	==
!!!GTL: Balladen und Romanzen (erzählende Volkslieder)
!!!AGN: Romanze, Ballade, Lied
!! Melodie bei Pet. Schoeffer II. 1537 No. 55. Von Boehme rhythmisch
!!    "wieder hergestellt".
!!!ONB: ESAC (Essen Associative Code) Database: ALTDEU
!!!AMT: simple triple
!!!AIN: vox
!!!EED: Helmut Schaffrath
!!!EEV: 1.0
!!!RDF**kern: l = terminal long
!!!URL-scan: https://rosdok.uni-rostock.de/mcrviewer/recordIdentifier/rosdok_ppn738218359/iview2/phys_0242.iview2?x=-425.8853427895981&y=107.39621750020888&scale=0.4823261117445838&rotation=0&layout=singlePageLayout
!!!ENC: Anna Maria Matuszewska
!!!EEV: 2024/22/02
*-	*-
